X:111
T: ZU KINDELSBERG AUF DEM HOHEN SCHLOSS
N: B0141
O: Europa, Mitteleuropa, Deutschland
R: Ballade, Romanze
M: 6/8
L: 1/16
K: Bb
F2 | B2F2B2d2B2d2 | f4e2d4
e2 | d3cB2c3Bc2 | d6B4
F2 | F3DGFF3DGF | G4A2B4
d2 | c3BAGF2E2D2 | E6D4
B2 | c4B2c3Bc2 | d6B4

@@@ Tune index: 1914
